www/assets/icons/web_asset_off.svg

<svg width="24" height="24" viewBox="0 0 24 24" xmlns="http://www.w3.org/2000/svg" fill='currentColor'><path d="M7.48497 3.29502H20.655C21.765 3.29502 22.655 4.19502 22.655 5.29502V17.295C22.655 17.635 22.565 17.955 22.425 18.235L20.655 16.465V7.29502H11.485L7.48497 3.29502ZM21.145 22.605L17.825 19.295H4.65497C3.54497 19.295 2.65497 18.395 2.65497 17.295V5.29502C2.65497 4.95502 2.73497 4.63502 2.88497 4.35502L1.34497 2.80502L2.75497 1.39502L22.555 21.195L21.145 22.605ZM15.825 17.295L5.82497 7.29502H4.65497V17.295H15.825Z"/></svg>

<svg xmlns="http://www.w3.org/2000/svg" width="24" height="24" viewBox="0 0 24 24" fill='currentColor'><path d="M7.485 3.295h13.17a2 2 0 0 1 2 2v12c0 .34-.09.66-.23.94l-1.77-1.77v-9.17h-9.17zm13.66 19.31-3.32-3.31H4.655a2 2 0 0 1-2-2v-12c0-.34.08-.66.23-.94l-1.54-1.55 1.41-1.41 19.8 19.8zm-5.32-5.31-10-10h-1.17v10z"/></svg>
